X:1
T:Lord, save me, for thy glorious name
T:Samuel Arnold
%%score [ 1 2 3 4 ]
L:1/8
Q:1/2=70
M:3/2
K:G
V:1 treble nm="Soprano" snm="S."
V:2 treble nm="Alto" snm="A."
V:3 treble-8 nm="Tenor" snm="T."
V:4 bass nm="Bass" snm="B."
V:1
 (E3 F) G4 E4 | B8 A4 | (G3 A B4) e4 | (^d3 e f4) d4 | (e3 d c4) (c2 B2) | (B4 A2 G2) (F2 E2) | %6
w: Lord * save me,|for thy|glor- * * ious~|Name, _ _ and~|in~ * * thy~ *|strength _ _ ap- *|
 B12 | z12 | (A3 B) c4 A4 | G3 A B4 e4 | (e4 ^d4) z4 | e12 | e8 g4 | e8 ^d4 | e12 |] %15
w: pear,~||To~ * judge~ my~|cause~ ac- cept~ my|pray'r, *|and|to my|words give|ear.|
V:2
 z12 | (B,3 ^C ^D4) B,4 | E8 G4 | F8 F4 | G8 F4 | E8 (F2 G2) | ^D12 | z12 | (F3 G) A4 F4 | %9
w: |for~ * * thy~|glor- ious~|Name,~ and~|in~ thy~|strength~ ap- *|pear,~||To~ * judge~ my~|
 E3 E E4 G4 | (G4 F4) z4 | (E8 D4) | (C3 D E4) A4 | G8 F4 | E12 |] %15
w: cause~ ac- cept~ my|pray'r,~ *|and~ _|to~ _ _ my~|words~ give~|ear.~|
V:3
 z12 | z12 | E3 F G4 E4 | B8 B4 | (B4 E4) F4 | G8 A4 | B12 | (B3 c) d4 B4 | A8 B4 | B8 B4 | B8 z4 | %11
w: ||for~ thy~ glor- ious~|Name,~ and~|in~ _ thy~|strength~ ap-|pear,~|To~ * judge~ my~|cause~ ac-|cept~ my~|pray'r,~|
 (B3 c) d4 B4 | (A3 B c4) c4 | B8 A4 | G12 |] %15
w: and~ * to~ my~|words,~ _ _ my~|words~ give~|ear.~|
V:4
 z12 | z12 | z12 | (B,,3 ^C,) (^D,4 B,,4) | (E,8 D,4) | C,8 C,4 | B,,12 | (G,3 A,) B,4 G,4 | %8
w: |||and~ _ in~ _|thy~ _|strength~ ap-|pear,~|To~ * judge~ my~|
 D,8 ^D,4 | (E,3 F, G,4) E,4 | B,,8 z4 | (^G,3 A,) B,4 G,4 | A,8 A,4 | B,8 B,,4 | E,12 |] %15
w: cause~ ac-|cept~ _ _ my~|pray'r~|and~ * to~ my~|words,~ my~|words~ give~|ear.~|

